packages/core/src/svgs/tko.svg

<svg width="24" height="24" viewBox="0 0 24 24" fill="none" xmlns="http://www.w3.org/2000/svg">
<g clip-path="url(#clip0_31_19804)">
<path d="M0 0H24V24H0V0Z" fill="#F0F3FA"/>
<path fill-rule="evenodd" clip-rule="evenodd" d="M14.4685 7.63521C13.8724 7.21393 13.5583 6.36878 13.9757 5.76964C14.3271 5.26521 14.9888 5.0595 15.5198 5.37021C17.5213 6.54193 18.8571 8.6355 18.8571 11.1388C18.8571 14.4859 16.4584 17.2738 13.2857 17.8755V18.4241C13.2857 18.7651 13.1502 19.0921 12.9091 19.3332C12.668 19.5743 12.341 19.7098 12 19.7098C11.659 19.7098 11.3319 19.5743 11.0908 19.3332C10.8497 19.0921 10.7143 18.7651 10.7143 18.4241V17.8755C7.54154 17.2738 5.14282 14.4864 5.14282 11.1384C5.14282 8.60164 6.51939 6.45321 8.56711 5.28407C9.10454 4.97764 9.76668 5.19235 10.1155 5.70278C10.5355 6.31735 10.1995 7.1775 9.58497 7.5975C9.00808 7.99055 8.53605 8.51869 8.21 9.13591C7.88394 9.75314 7.71375 10.4407 7.71425 11.1388C7.71425 13.0575 8.97554 14.6822 10.7143 15.2282V14.1384C10.7143 13.7974 10.8497 13.4703 11.0908 13.2292C11.3319 12.9881 11.659 12.8526 12 12.8526C12.341 12.8526 12.668 12.9881 12.9091 13.2292C13.1502 13.4703 13.2857 13.7974 13.2857 14.1384V15.2278C15.0244 14.6818 16.2857 13.0571 16.2857 11.1384C16.2861 10.4514 16.1213 9.77445 15.805 9.16464C15.4887 8.55484 15.0303 8.03054 14.4685 7.63521ZM13.2857 11.1426C13.2857 11.4836 13.1502 11.8107 12.9091 12.0518C12.668 12.2929 12.341 12.4284 12 12.4284C11.659 12.4284 11.3319 12.2929 11.0908 12.0518C10.8497 11.8107 10.7143 11.4836 10.7143 11.1426C10.7143 10.8016 10.8497 10.4746 11.0908 10.2335C11.3319 9.99238 11.659 9.85693 12 9.85693C12.341 9.85693 12.668 9.99238 12.9091 10.2335C13.1502 10.4746 13.2857 10.8016 13.2857 11.1426Z" fill="#17A84B"/>
<path fill-rule="evenodd" clip-rule="evenodd" d="M12 19.7128C12.341 19.7128 12.668 19.5773 12.9091 19.3362C13.1503 19.0951 13.2857 18.7681 13.2857 18.4271V17.8802C16.4584 17.2807 18.8571 14.5044 18.8571 11.1735C18.8571 10.002 18.5578 8.8499 17.9874 7.82659C17.4171 6.80328 16.5947 5.9427 15.5983 5.32652C15.0317 4.9768 14.3156 5.21294 13.9526 5.77094C13.5411 6.40523 13.881 7.26752 14.4969 7.70723C15.05 8.10035 15.501 8.62014 15.8122 9.22316C16.1234 9.82618 16.2858 10.4949 16.2857 11.1735C16.2857 13.0828 15.0244 14.6934 13.2857 15.2347V14.1431C13.2857 13.8021 13.1503 13.4751 12.9091 13.2339C12.668 12.9928 12.341 12.8574 12 12.8574V19.7128ZM12 12.4288C12.341 12.4288 12.668 12.2933 12.9091 12.0522C13.1503 11.8111 13.2857 11.4841 13.2857 11.1431C13.2857 10.8021 13.1503 10.4751 12.9091 10.2339C12.668 9.99283 12.341 9.85737 12 9.85737V12.4288Z" fill="#077FA2"/>
</g>
<defs>
<clipPath id="clip0_31_19804">
<rect width="24" height="24" fill="white"/>
</clipPath>
</defs>
</svg>

<svg xmlns="http://www.w3.org/2000/svg" width="24" height="24" fill="none" viewBox="0 0 24 24"><g clip-path="url(#a)"><path fill="#F0F3FA" d="M0 0h24v24H0z"/><path fill="#17A84B" fill-rule="evenodd" d="M14.469 7.635c-.597-.421-.91-1.266-.493-1.865.351-.505 1.013-.71 1.544-.4 2.001 1.172 3.337 3.266 3.337 5.769a6.86 6.86 0 0 1-5.571 6.736v.55a1.286 1.286 0 0 1-2.572 0v-.55a6.86 6.86 0 0 1-5.571-6.737c0-2.536 1.376-4.685 3.424-5.854.538-.306 1.2-.092 1.549.419.42.614.084 1.475-.531 1.894a4.28 4.28 0 0 0-1.87 3.542 4.29 4.29 0 0 0 3 4.09v-1.09a1.286 1.286 0 1 1 2.57 0v1.089a4.288 4.288 0 0 0 1.184-7.593m-1.183 3.508a1.286 1.286 0 1 1-2.572 0 1.286 1.286 0 0 1 2.572 0" clip-rule="evenodd"/><path fill="#077FA2" fill-rule="evenodd" d="M12 19.713a1.286 1.286 0 0 0 1.286-1.286v-.547c3.172-.6 5.571-3.376 5.571-6.706a6.87 6.87 0 0 0-3.259-5.847c-.566-.35-1.282-.114-1.645.444-.412.634-.072 1.497.544 1.936a4.25 4.25 0 0 1 1.789 3.467c0 1.909-1.262 3.52-3 4.06v-1.09A1.286 1.286 0 0 0 12 12.856zm0-7.284a1.286 1.286 0 0 0 0-2.572z" clip-rule="evenodd"/></g><defs><clipPath id="a"><path fill="#fff" d="M0 0h24v24H0z"/></clipPath></defs></svg>
